X: 024
T: The Kirn, a Reel
C: attr. John French (1753-1803)
R: reel
B: "John French Collection", John French ed. p.2 #4
S: http://www.heallan.com/french.asp
Z: 2012 John Chambers <jc:trillian.mit.edu>
M: C
L: 1/8
K: G
B | G2(TBA) GBdg | bgdB eA-AB | G(cTBA) GBdg | dBAG EG-G :|
g | eg (Tgf/g/) dgBg | bgdB eAAg | eg (Tgf/g/) (dg)fe | dBAG EG-G ||
g | eg (Tgf/g/) dgBg | bgdB eAAg | edeb (Tag/a/ b).g | dBAG EG-G |]

%%sep 2 1 500
%%sep 1 1 500

